icons/eye-unwatch.svg

<svg xmlns="http://www.w3.org/2000/svg" fill="#64b5f6" viewBox="0 0 24 24"><path d="M12 9a3 3 0 0 1 3 3 3 3 0 0 1-3 3 3 3 0 0 1-3-3 3 3 0 0 1 3-3m0-4.5c5 0 9.27 3.11 11 7.5-1.73 4.39-6 7.5-11 7.5S2.73 16.39 1 12c1.73-4.39 6-7.5 11-7.5M3.18 12a9.821 9.821 0 0 0 17.64 0 9.821 9.821 0 0 0-17.64 0"/></svg>

<!--
  - The MIT License (MIT)
  -
  - Copyright (c) 2015-2024 Elior "Mallowigi" Boukhobza
  -
  - Permission is hereby granted, free of charge, to any person obtaining a copy
  - of this software and associated documentation files (the "Software"), to deal
  - in the Software without restriction, including without limitation the rights
  - to use, copy, modify, merge, publish, distribute, sublicense, and/or sell
  - copies of the Software, and to permit persons to whom the Software is
  - furnished to do so, subject to the following conditions:
  -
  - The above copyright notice and this permission notice shall be included in all
  - copies or substantial portions of the Software.
  -
  - THE SOFTWARE IS PROVIDED "AS IS", WITHOUT WARRANTY OF ANY KIND, EXPRESS OR
  - IMPLIED, INCLUDING BUT NOT LIMITED TO THE WARRANTIES OF MERCHANTABILITY,
  - FITNESS FOR A PARTICULAR PURPOSE AND NONINFRINGEMENT. IN NO EVENT SHALL THE
  - AUTHORS OR COPYRIGHT HOLDERS BE LIABLE FOR ANY CLAIM, DAMAGES OR OTHER
  - LIABILITY, WHETHER IN AN ACTION OF CONTRACT, TORT OR OTHERWISE, ARISING FROM,
  - OUT OF OR IN CONNECTION WITH THE SOFTWARE OR THE USE OR OTHER DEALINGS IN THE
  - SOFTWARE.
  -
  -->


<svg xmlns="http://www.w3.org/2000/svg" version="1.1" width="16px" height="16px" fill="#64B5F6"
     viewBox="0 0 24 24">
  <path
      d="M12,9A3,3 0 0,1 15,12A3,3 0 0,1 12,15A3,3 0 0,1 9,12A3,3 0 0,1 12,9M12,4.5C17,4.5 21.27,7.61 23,12C21.27,16.39 17,19.5 12,19.5C7,19.5 2.73,16.39 1,12C2.73,7.61 7,4.5 12,4.5M3.18,12C4.83,15.36 8.24,17.5 12,17.5C15.76,17.5 19.17,15.36 20.82,12C19.17,8.64 15.76,6.5 12,6.5C8.24,6.5 4.83,8.64 3.18,12Z"/>
</svg>
